X:111
T:Gorman's Reel 
B:CRE2.276 (RÃÂÃÂÃÂÃÂ­l UÃÂÃÂÃÂÃÂ­ GhormÃÂÃÂÃÂÃÂ¡in)
F:file ID: cre.2/111gorman
N:CRE key signature for this tune is G, not D - scribal error? 
L:1/8
M:C
R:reel
Q:180
K:D
AAAB defa|agfd edB2|AAAB defe|dBAF E2D2:|
faaf defa|agfd edB2|faaf defa|agfg e2d2|
faaf de (3fga|agfd edB2|AAAB defe|dBAF E2D2||

%%%

